file/n26.svg

<svg clip-rule="evenodd" fill-rule="evenodd" stroke-linejoin="round" stroke-miterlimit="1.41421" viewBox="0 0 560 400" xmlns="http://www.w3.org/2000/svg"><path d="m4.04 15.4 17.94 26.49h3.29v-34.52h-3.99v26.25l-17.37-25.6-.44-.65h-1.88l-.03-.04v.04h-1.51v34.52h3.99zm47.51 12.68c6.07-3.68 8.45-6.84 8.45-11.29 0-6.11-4.13-10.06-10.5-10.06-4.812 0-9.189 2.862-11.12 7.27l-.6 1.34 3.61 1.66.61-1.29c1.262-3.011 4.216-4.985 7.48-5 4 0 6.45 2.28 6.45 6.11 0 2.46-1.07 4.64-6.37 7.9-9.46 5.8-11.55 8.39-11.8 14.6v2.6h22.13v-4h-18c.36-3.18 1.76-5.03 9.66-9.84zm30.95-8.64c-2.989.1-5.869 1.151-8.22 3 .62-7.44 3.9-11.8 9-11.8 2.265-.048 4.455.821 6.07 2.41l1.14 1 2.59-3.05-1.14-1c-2.366-2.157-5.468-3.334-8.67-3.29-8.07 0-13.08 7.07-13.08 18.45 0 12.79 6.34 17.35 12.27 17.35 7.54.02 11.54-5.96 11.54-11.87 0-8.27-6.19-11.2-11.5-11.2zm7.5 11.2c0 3.95-2.58 7.94-7.51 7.94-3.35 0-7.47-2.85-8.2-10.85 1.45-1.74 4.58-4.35 8.24-4.35 6.71.01 7.47 5.08 7.47 7.26zm-90 15.75h25.32v2.97h-25.32zm.09-46.39h25.23v2.97h-25.23z" fill-rule="nonzero" transform="matrix(3.82979 0 0 3.82979 100 105.481)"/></svg>

<?xml version="1.0" encoding="UTF-8" standalone="no"?>
<!DOCTYPE svg PUBLIC "-//W3C//DTD SVG 1.1//EN" "http://www.w3.org/Graphics/SVG/1.1/DTD/svg11.dtd">
<svg width="100%" height="100%" viewBox="0 0 560 400" version="1.1" xmlns="http://www.w3.org/2000/svg" xmlns:xlink="http://www.w3.org/1999/xlink" xml:space="preserve" xmlns:serif="http://www.serif.com/" style="fill-rule:evenodd;clip-rule:evenodd;stroke-linejoin:round;stroke-miterlimit:1.41421;">
    <g transform="matrix(3.82979,0,0,3.82979,100,105.481)">
        <path d="M4.04,15.4L21.98,41.89L25.27,41.89L25.27,7.37L21.28,7.37L21.28,33.62L3.91,8.02L3.47,7.37L1.59,7.37L1.56,7.33L1.56,7.37L0.05,7.37L0.05,41.89L4.04,41.89L4.04,15.4ZM51.55,28.08C57.62,24.4 60,21.24 60,16.79C60,10.68 55.87,6.73 49.5,6.73C44.688,6.73 40.311,9.592 38.38,14L37.78,15.34L41.39,17L42,15.71C43.262,12.699 46.216,10.725 49.48,10.71C53.48,10.71 55.93,12.99 55.93,16.82C55.93,19.28 54.86,21.46 49.56,24.72C40.1,30.52 38.01,33.11 37.76,39.32L37.76,41.92L59.89,41.92L59.89,37.92L41.89,37.92C42.25,34.74 43.65,32.89 51.55,28.08ZM82.5,19.44C79.511,19.54 76.631,20.591 74.28,22.44C74.9,15 78.18,10.64 83.28,10.64C85.545,10.592 87.735,11.461 89.35,13.05L90.49,14.05L93.08,11L91.94,10C89.574,7.843 86.472,6.666 83.27,6.71C75.2,6.71 70.19,13.78 70.19,25.16C70.19,37.95 76.53,42.51 82.46,42.51C90,42.53 94,36.55 94,30.64C94,22.37 87.81,19.44 82.5,19.44ZM90,30.64C90,34.59 87.42,38.58 82.49,38.58C79.14,38.58 75.02,35.73 74.29,27.73C75.74,25.99 78.87,23.38 82.53,23.38C89.24,23.39 90,28.46 90,30.64ZM0,46.39L25.32,46.39L25.32,49.36L0,49.36L0,46.39ZM0.09,0L25.32,0L25.32,2.97L0.09,2.97L0.09,0Z" style="fill-rule:nonzero;"/>
    </g>
</svg>
